public/images/bulbWhite.svg

<?xml version="1.0" encoding="UTF-8"?>
<svg width="20px" height="27px" viewBox="0 0 20 27" version="1.1" xmlns="http://www.w3.org/2000/svg" xmlns:xlink="http://www.w3.org/1999/xlink">
    <!-- Generator: sketchtool 50.2 (55047) - http://www.bohemiancoding.com/sketch -->
    <title>9CE23439-4183-4D7A-8D62-ABF6E2E16BCF</title>
    <desc>Created with sketchtool.</desc>
    <defs></defs>
    <g id="Page-1" stroke="none" stroke-width="1" fill="none" fill-rule="evenodd">
        <g id="Flöde---utan-driftstörning" transform="translate(-295.000000, -596.000000)" fill="#FFFFFF" fill-rule="nonzero">
            <g id="Menu-Copy" transform="translate(0.000000, 584.000000)">
                <g id="Bulb" transform="translate(280.000000, 0.000000)">
                    <g transform="translate(15.000000, 12.000000)" id="Shape">
                        <path d="M11.0755102,0.606122449 C5.62040816,-0.0551020408 0.716326531,3.85714286 0.0551020408,9.3122449 C0,9.69795918 0,10.0836735 0,10.4693878 C0,12.5081633 0.606122449,14.4918367 1.81836735,16.144898 C2.81020408,17.4673469 3.52653061,18.9 4.07755102,20.4979592 C4.29795918,21.2693878 4.46326531,22.0959184 4.46326531,22.922449 L4.46326531,23.6938776 C4.46326531,25.5122449 5.95102041,27 7.76938776,27 L12.177551,27 C13.9959184,27 15.4836735,25.5122449 15.4836735,23.6938776 L15.4836735,22.8673469 C15.4836735,22.0408163 15.5938776,21.2693878 15.8693878,20.4979592 C16.4204082,18.955102 17.1367347,17.4673469 18.1285714,16.144898 C21.2693878,11.6265306 20.1122449,5.45510204 15.6489796,2.36938776 C14.2163265,1.37755102 12.6734694,0.826530612 11.0755102,0.606122449 Z M13.2244898,23.6938776 C13.2244898,24.3 12.7285714,24.7959184 12.122449,24.7959184 L7.71428571,24.7959184 C7.10816327,24.7959184 6.6122449,24.3 6.6122449,23.6938776 L6.6122449,21.4897959 L13.2244898,21.4897959 L13.2244898,23.6938776 Z M16.255102,14.877551 C15.2632653,16.255102 14.4918367,17.7428571 13.8857143,19.2857143 L11.0204082,19.2857143 L11.0204082,13.6102041 C12.9489796,13.1142857 14.3265306,11.3510204 14.3265306,9.36734694 C14.3265306,8.76122449 13.8306122,8.26530612 13.2244898,8.26530612 C12.6183673,8.26530612 12.122449,8.76122449 12.122449,9.36734694 C12.122449,10.5795918 11.1306122,11.5714286 9.91836735,11.5714286 C8.70612245,11.5714286 7.71428571,10.5795918 7.71428571,9.36734694 C7.71428571,8.76122449 7.21836735,8.26530612 6.6122449,8.26530612 C6.00612245,8.26530612 5.51020408,8.76122449 5.51020408,9.36734694 C5.51020408,11.3510204 6.8877551,13.1142857 8.81632653,13.6102041 L8.81632653,19.2857143 L5.95102041,19.2857143 C5.34489796,17.7428571 4.57346939,16.255102 3.58163265,14.877551 C2.7,13.6102041 2.20408163,12.0673469 2.20408163,10.4693878 C2.20408163,6.22653061 5.6755102,2.75510204 9.91836735,2.75510204 C14.1612245,2.75510204 17.6326531,6.22653061 17.6326531,10.4693878 C17.6326531,12.0673469 17.1367347,13.6102041 16.255102,14.877551 Z"></path>
                    </g>
                </g>
            </g>
        </g>
    </g>
</svg>

<svg width="20" height="27" xmlns="http://www.w3.org/2000/svg"><path d="M11 .6A10 10 0 0 0 0 9.3v1.2c0 2 .6 4 1.8 5.6 1 1.4 1.7 2.8 2.3 4.4.2.8.4 1.6.4 2.4v.8C4.5 25.5 6 27 7.8 27h4.4c1.8 0 3.3-1.5 3.3-3.3v-.8c0-.9 0-1.6.4-2.4.5-1.5 1.2-3 2.2-4.4a9.9 9.9 0 0 0-2.5-13.7c-1.4-1-3-1.6-4.5-1.8zm2.2 23c0 .7-.5 1.2-1 1.2H7.6c-.6 0-1-.5-1-1.1v-2.2h6.5v2.2zm3-8.7a20 20 0 0 0-2.3 4.4H11v-5.7c2-.5 3.3-2.2 3.3-4.2 0-.6-.5-1.1-1-1.1-.7 0-1.2.5-1.2 1 0 1.3-1 2.3-2.2 2.3-1.2 0-2.2-1-2.2-2.2 0-.6-.5-1.1-1-1.1-.7 0-1.2.5-1.2 1 0 2 1.4 3.8 3.3 4.3v5.7H6a20 20 0 0 0-2.4-4.4A7.7 7.7 0 0 1 9.9 2.8a7.7 7.7 0 0 1 6.4 12z" fill="#FFF" fill-rule="nonzero"/></svg>
